src/amo/components/CategoryIcon/img/shopping.svg

<svg xmlns="http://www.w3.org/2000/svg" width="64" height="64" viewBox="0 0 64 64">
  <g fill="#0F1126">
    <path d="M20.1846154 62.7692308C16.2421519 62.7692308 13.0461538 59.5732327 13.0461538 55.6307692 13.0461538 51.6883058 16.2421519 48.4923077 20.1846154 48.4923077 24.1270788 48.4923077 27.3230769 51.6883058 27.3230769 55.6307692 27.3230769 59.5732327 24.1270788 62.7692308 20.1846154 62.7692308zM20.1846154 60.3076923C22.7676087 60.3076923 24.8615385 58.2137625 24.8615385 55.6307692 24.8615385 53.0477759 22.7676087 50.9538462 20.1846154 50.9538462 17.6016221 50.9538462 15.5076923 53.0477759 15.5076923 55.6307692 15.5076923 58.2137625 17.6016221 60.3076923 20.1846154 60.3076923zM53.6615385 62.7692308C49.719075 62.7692308 46.5230769 59.5732327 46.5230769 55.6307692 46.5230769 51.6883058 49.719075 48.4923077 53.6615385 48.4923077 57.6040019 48.4923077 60.8 51.6883058 60.8 55.6307692 60.8 59.5732327 57.6040019 62.7692308 53.6615385 62.7692308zM53.6615385 60.3076923C56.2445318 60.3076923 58.3384615 58.2137625 58.3384615 55.6307692 58.3384615 53.0477759 56.2445318 50.9538462 53.6615385 50.9538462 51.0785452 50.9538462 48.9846154 53.0477759 48.9846154 55.6307692 48.9846154 58.2137625 51.0785452 60.3076923 53.6615385 60.3076923zM53.4756519 39.3846154L18.3659998 39.3846154 12.4583075 0 2.46153846 0C1.10206831 0 0 1.10206831 0 2.46153846 0 3.82100861 1.10206831 4.92307692 2.46153846 4.92307692L8.21861558 4.92307692 14.1263079 44.3076923 57.7858865 44.3076923 62.3807583 9.84615385 19.2984615 9.84615385C17.9389914 9.84615385 16.8369231 10.9482222 16.8369231 12.3076923 16.8369231 13.6671625 17.9389914 14.7692308 19.2984615 14.7692308L56.7577032 14.7692308 53.4756519 39.3846154z"/>
  </g>
</svg>

<svg xmlns="http://www.w3.org/2000/svg" width="64" height="64"><path d="M20.185 62.77a7.138 7.138 0 1 1 0-14.278 7.138 7.138 0 0 1 0 14.277zm0-2.462a4.677 4.677 0 1 0 0-9.354 4.677 4.677 0 0 0 0 9.354zm33.477 2.461a7.138 7.138 0 1 1 0-14.277 7.138 7.138 0 0 1 0 14.277zm0-2.461a4.677 4.677 0 1 0 0-9.354 4.677 4.677 0 0 0 0 9.354zm-.186-20.923h-35.11L12.458 0H2.462a2.462 2.462 0 0 0 0 4.923h5.757l5.907 39.385h43.66L62.38 9.846H19.298a2.462 2.462 0 0 0 0 4.923h37.46l-3.282 24.616z" fill="#0F1126"/></svg>
